styles/6/Numix/22/places/default-folder-documents.svg

<?xml version="1.0" encoding="UTF-8" standalone="no"?>
<!-- Created with Inkscape (http://www.inkscape.org/) -->

<svg
   xmlns:dc="http://purl.org/dc/elements/1.1/"
   xmlns:cc="http://creativecommons.org/ns#"
   xmlns:rdf="http://www.w3.org/1999/02/22-rdf-syntax-ns#"
   xmlns:svg="http://www.w3.org/2000/svg"
   xmlns="http://www.w3.org/2000/svg"
   xmlns:xlink="http://www.w3.org/1999/xlink"
   xmlns:sodipodi="http://sodipodi.sourceforge.net/DTD/sodipodi-0.dtd"
   xmlns:inkscape="http://www.inkscape.org/namespaces/inkscape"
   width="22"
   height="22"
   id="svg2"
   version="1.1"
   inkscape:version="0.91 r"
   sodipodi:docname="default-folder-documents.svg"
   inkscape:export-filename="/media/Data/Main/Visuals/Icons/Numix/Desktop/repos/numix-wiki/Gjorgi/Numix-folders/48/New/folder-144.png"
   inkscape:export-xdpi="270"
   inkscape:export-ydpi="270">
  <defs
     id="defs4">
    <linearGradient
       inkscape:collect="always"
       id="linearGradient3760">
      <stop
         style="stop-color:#000000;stop-opacity:1;"
         offset="0"
         id="stop3762" />
      <stop
         style="stop-color:#000000;stop-opacity:0;"
         offset="1"
         id="stop3764" />
    </linearGradient>
    <radialGradient
       inkscape:collect="always"
       xlink:href="#linearGradient3760"
       id="radialGradient3766"
       cx="11"
       cy="19"
       fx="11"
       fy="19"
       r="11"
       gradientTransform="matrix(1,0,0,0.09090909,0,17.272727)"
       gradientUnits="userSpaceOnUse" />
  </defs>
  <sodipodi:namedview
     id="base"
     pagecolor="#ffffff"
     bordercolor="#666666"
     borderopacity="1.0"
     inkscape:pageopacity="0.0"
     inkscape:pageshadow="2"
     inkscape:zoom="27.860007"
     inkscape:cx="3.5496568"
     inkscape:cy="13.60393"
     inkscape:document-units="px"
     inkscape:current-layer="layer1"
     showgrid="true"
     inkscape:window-width="1920"
     inkscape:window-height="1052"
     inkscape:window-x="0"
     inkscape:window-y="28"
     inkscape:window-maximized="1"
     showguides="true"
     inkscape:guide-bbox="true">
    <inkscape:grid
       type="xygrid"
       id="grid2985"
       empspacing="5"
       visible="true"
       enabled="true"
       snapvisiblegridlinesonly="true" />
  </sodipodi:namedview>
  <metadata
     id="metadata7">
    <rdf:RDF>
      <cc:Work
         rdf:about="">
        <dc:format>image/svg+xml</dc:format>
        <dc:type
           rdf:resource="http://purl.org/dc/dcmitype/StillImage" />
        <dc:title />
      </cc:Work>
    </rdf:RDF>
  </metadata>
  <g
     inkscape:label="Layer 1"
     inkscape:groupmode="layer"
     id="layer1"
     transform="translate(0,-1030.3622)">
    <path
       sodipodi:type="arc"
       style="opacity:0.25;fill:url(#radialGradient3766);fill-opacity:1;stroke:none"
       id="path2990"
       sodipodi:cx="11"
       sodipodi:cy="19"
       sodipodi:rx="11"
       sodipodi:ry="1"
       d="M 22,19 A 11,1 0 1 1 0,19 11,1 0 1 1 22,19 z"
       transform="matrix(1.1818182,0,0,1,-2,1031.3622)" />
    <path
       sodipodi:nodetypes="ccccccccc"
       inkscape:connector-curvature="0"
       id="path3029"
       d="m 0,1033.3622 0,14 22,0 0,-7 -1,-6 -8,0 -1,-2 -11,0 c -0.5,0 -1,0.5 -1,1 z"
       style="fill:#ef6c00;fill-opacity:1;stroke:none" />
    <path
       style="opacity:0.02999998;fill:#000000;fill-opacity:1;stroke:none"
       d="m 1,1032.3622 c -0.5,0 -1,0.5 -1,1 l 0,1 c 0,-0.5 0.5,-1 1,-1 l 10,0 1,2 9,0 0,6 0,-1 0,-6 -8,0 -1,-2 z"
       id="path3806"
       inkscape:connector-curvature="0"
       sodipodi:nodetypes="sscsccccccccs" />
    <rect
       style="fill:#fffdf0;fill-opacity:1;stroke:none"
       id="rect3799"
       width="10"
       height="3.9999914"
       x="2"
       y="1035.3622" />
    <path
       style="fill:#ffa726;fill-opacity:1;stroke:none"
       d="m 22,1035.4289 0,14.9333 -22,0 0,-14 11,0 1,-2 9,0 c 0.5,0 1,0.5333 1,1.0667 z"
       id="rect2987"
       inkscape:connector-curvature="0"
       sodipodi:nodetypes="cccccccc" />
    <path
       sodipodi:nodetypes="ccccc"
       id="path3794"
       d="m 0,1049.3622 0,1 22,0 0,-1 z"
       style="opacity:0.15;fill:#000000;fill-opacity:1;stroke:none"
       inkscape:connector-curvature="0" />
    <path
       style="fill:none;stroke:none"
       d="m 11,1034.8622 -2.5,1.5 1.5,0 z"
       id="path3801"
       inkscape:connector-curvature="0" />
    <path
       style="opacity:0.02999998;fill:#000000;fill-opacity:1;stroke:none"
       d="m 12,1034.3622 -1,2 -11,0 0,1 12,0 1,-2 8,0 c 0.5,0 1,0.5 1,1 l 0,-1 c 0,-0.5 -0.5,-1 -1,-1 z"
       id="path3033"
       inkscape:connector-curvature="0"
       sodipodi:nodetypes="ccccccscssc" />
    <g
       id="g3862"
       style="fill:#b17621;fill-opacity:1;opacity:1.0">
      <rect
         ry="0.25"
         rx="0.25"
         y="1041.3622"
         x="8"
         height="1.0000174"
         width="4"
         id="rect3767"
         style="opacity:1;fill:#b17621;fill-opacity:1;stroke:none" />
      <path
         id="rect3807"
         transform="translate(0,1030.3622)"
         d="M 7 8 C 6.446 8 6 8.446 6 9 L 6 17 C 6 17.554 6.446 18 7 18 L 13 18 C 13.554 18 14 17.554 14 17 L 14 9 C 14 8.446 13.554 8 13 8 L 7 8 z M 8 9 L 12 9 C 12.554 9 13 9.446 13 10 L 13 16 C 13 16.554 12.554 17 12 17 L 8 17 C 7.446 17 7 16.554 7 16 L 7 10 C 7 9.446 7.446 9 8 9 z "
         style="opacity:1;fill:#b17621;fill-opacity:1;stroke:none" />
      <rect
         style="opacity:1;fill:#b17621;fill-opacity:1;stroke:none"
         id="rect3812"
         width="4"
         height="1.0000174"
         x="8"
         y="1043.3622"
         rx="0.25"
         ry="0.25" />
      <rect
         ry="0.25"
         rx="0.25"
         y="1045.3622"
         x="8"
         height="1.0000174"
         width="4"
         id="rect3814"
         style="opacity:1;fill:#b17621;fill-opacity:1;stroke:none" />
      <path
         sodipodi:nodetypes="cccc"
         transform="translate(0,1030.3622)"
         inkscape:connector-curvature="0"
         id="path3854"
         d="m 12,10 0,-2 2,2 z"
         style="fill:#b17621;fill-opacity:1;stroke:none;opacity:1" />
    </g>
  </g>
</svg>

<!-- Created with Inkscape (http://www.inkscape.org/) -->
<svg xmlns="http://www.w3.org/2000/svg" viewBox="0 0 22 22">
 <defs>
  <radialGradient id="radialGradient3766" cx="11" cy="19" r="11" gradientTransform="matrix(1,0,0,0.09090909,0,17.272727)" gradientUnits="userSpaceOnUse">
   <stop style="stop-color:#000;stop-opacity:1"/>
   <stop offset="1" style="stop-color:#000;stop-opacity:0"/>
  </radialGradient>
 </defs>
 <g transform="translate(0,-1030.3622)">
  <path d="M 22 19 A 11 1 0 1 1 0 19 11 1 0 1 1 22 19 z" transform="matrix(1.1818182,0,0,1,-2,1031.3622)" style="fill:url(#radialGradient3766);opacity:0.25;fill-opacity:1;stroke:none"/>
  <path d="m 0 1033.36 0 14 22 0 0 -7 -1 -6 -8 0 -1 -2 -11 0 c -0.5 0 -1 0.5 -1 1 z" style="fill:#ef6c00;fill-opacity:1;stroke:none"/>
  <path d="m 1 1032.36 c -0.5 0 -1 0.5 -1 1 l 0 1 c 0 -0.5 0.5 -1 1 -1 l 10 0 1 2 9 0 0 6 0 -1 0 -6 -8 0 -1 -2 z" style="fill:#000;opacity:0.03;fill-opacity:1;stroke:none"/>
  <rect width="10" height="4" x="2" y="1035.36" style="fill:#fffdf0;fill-opacity:1;stroke:none"/>
  <path d="m 22 1035.43 0 14.933 -22 0 0 -14 11 0 1 -2 9 0 c 0.5 0 1 0.533 1 1.067 z" style="fill:#ffa726;fill-opacity:1;stroke:none"/>
  <path d="m 0 1049.36 0 1 22 0 0 -1 z" style="fill:#000;opacity:0.15;fill-opacity:1;stroke:none"/>
  <path d="m 12 1034.36 -1 2 -11 0 0 1 12 0 1 -2 8 0 c 0.5 0 1 0.5 1 1 l 0 -1 c 0 -0.5 -0.5 -1 -1 -1 z" style="fill:#000;opacity:0.03;fill-opacity:1;stroke:none"/>
  <g style="fill:#b17621;opacity:1;fill-opacity:1">
   <rect rx="0.25" y="1041.36" x="8" height="1" width="4" style="opacity:1;stroke:none"/>
   <path transform="translate(0,1030.3622)" d="m 7 8 c -0.554 0 -1 0.446 -1 1 l 0 8 c 0 0.554 0.446 1 1 1 l 6 0 c 0.554 0 1 -0.446 1 -1 l 0 -8 c 0 -0.554 -0.446 -1 -1 -1 l -6 0 z m 1 1 l 4 0 c 0.554 0 1 0.446 1 1 l 0 6 c 0 0.554 -0.446 1 -1 1 l -4 0 c -0.554 0 -1 -0.446 -1 -1 l 0 -6 c 0 -0.554 0.446 -1 1 -1 z" style="opacity:1;stroke:none"/>
   <rect width="4" height="1" x="8" y="1043.36" rx="0.25" style="opacity:1;stroke:none"/>
   <rect rx="0.25" y="1045.36" x="8" height="1" width="4" style="opacity:1;stroke:none"/>
   <path transform="translate(0,1030.3622)" d="m 12 10 0 -2 2 2 z" style="opacity:1;stroke:none"/>
  </g>
 </g>
</svg>
